!!!COM: Palestrina, Giovanni Perluigi da
!!!OPR: Missa Assumpta est Maria
!!!OMD: Credo
!!!OTL: First Section
**kern	**kern	**kern	**kern	**kern	**kern
*Ibass	*Itenor	*Itenor	*Icalto	*Icant	*Icant
!Bassus	!Tenor 2	!Tenor 1	!Altus	!Cantus 2	!Cantus 1
*clefF4	*clefGv2	*clefGv2	*clefG2	*clefG2	*clefG2
*k[]	*k[]	*k[]	*k[]	*k[]	*k[]
*G:mix	*G:mix	*G:mix	*G:mix	*G:mix	*G:mix
*M4/2	*M4/2	*M4/2	*M4/2	*M4/2	*M4/2
=1	=1	=1	=1	=1	=1
0r	0r	0r	1r	1g	1r
.	.	.	1g	2.b	2r
.	.	.	.	.	2g
.	.	.	.	4cc	.
=2	=2	=2	=2	=2	=2
0r	0r	0r	2g	2dd	2b
.	.	.	2e	2g	2cc
.	.	.	2f	2a	2dd
.	.	.	2g	2b	2dd
=3	=3	=3	=3	=3	=3
0r	1r	0r	1c	1cc	1ee
.	1G	.	[1g	1b	[1dd
=4	=4	=4	=4	=4	=4
1G	2.B	2r	0g]	0r	1dd]
.	.	2G	.	.	.
.	4c	.	.	.	.
2G	2d	2B	.	.	1r
2E	2G	2c	.	.	.
=5	=5	=5	=5	=5	=5
2F	2A	2d	1r	0r	0r
2G	2B	2d	.	.	.
2C	1c	1e	1g	.	.
[2c	.	.	.	.	.
=6	=6	=6	=6	=6	=6
4c]	1G	1d	1g	1r	1r
8B	.	.	.	.	.
8A	.	.	.	.	.
2B	.	.	.	.	.
2c	2g	2c	2e	2r	2r
[2C	[2e	[2c	[2g	[2ee	[2cc
=7	=7	=7	=7	=7	=7
2C]	2e]	2c]	2g]	2ee]	2cc]
2C	2e	2G	2g	2ee	2cc
2.G	2.d	2.B	2.g	2.b	2.dd
4G	4d	4B	4g	4b	4dd
=8	=8	=8	=8	=8	=8
1D	2d	1A	1a	1dd	1ff
.	1f	.	.	.	.
2F	.	2A	2a	2cc	2ff
2F	2c	2A	2a	2cc	2ff
=9	=9	=9	=9	=9	=9
1C	2.e	0c	1g	1cc	0ee
.	4f	.	.	.	.
2r	2g	.	2r	2r	.
[2c	[2g	.	[2cc	[2ee	.
=10	=10	=10	=10	=10	=10
2c]	2g]	0r	2cc]	2ee]	0r
2G	2g	.	2b	2dd	.
2A	2e	.	2a	2cc	.
2c	2e	.	2g	2cc	.
=11	=11	=11	=11	=11	=11
2.G	2.d	1r	2.g	2.b	1r
4G	4d	.	4g	4b	.
1C	1c	2r	2g	2cc	2r
.	.	[2c	[2g	[2cc	[2ee
=12	=12	=12	=12	=12	=12
0r	0r	2c]	2g]	2cc]	2ee]
.	.	2G	2g	2b	2dd
.	.	2A	2e	2a	2cc
.	.	2c	2e	2g	2cc
=13	=13	=13	=13	=13	=13
0r	0r	2.G	2.g	2.dd	2.b
.	.	4G	4g	4dd	4b
.	.	1d	1f#	1dd	1a
=14	=14	=14	=14	=14	=14
0C	0e	0c	0g	0ee	0cc
=15	=15	=15	=15	=15	=15
1C	1e	1c	1g	1cc	1ee
1G	1g	1d	1g	1b	1dd
=16	=16	=16	=16	=16	=16
0D	2f#	2d	2a	2a	1dd
.	2.f#	2.d	2.a	2.dd	.
.	.	.	.	.	1r
.	4f#	4d	4a	4dd	.
.	2f#	2d	2b	2dd	.
=17	=17	=17	=17	=17	=17
0r	1g	1c	1cc	1ee	1r
.	1a	2F	2cc	2ff	2r
.	.	[2f	[2a	[2ff	[2cc
=18	=18	=18	=18	=18	=18
0r	0r	2f]	2a]	2ff]	2cc]
.	.	2c	2g	2ee	2cc
.	.	2d	2f#	2dd	2a
.	.	2e	[2g	2cc	2g
=19	=19	=19	=19	=19	=19
1r	1r	1d	2g]	0dd	1a
.	.	.	2f#	.	.
[1G	2r	2r	[1g	.	1b
.	[2d	[2B	.	.	.
=20	=20	=20	=20	=20	=20
2G]	2d]	2B]	1g]	0r	0r
2E	2c	2G	.	.	.
2F	2d	2A	1r	.	.
2G	2e	2B	.	.	.
=21	=21	=21	=21	=21	=21
2.A	4f	1c	1r	1r	0r
.	4e	.	.	.	.
.	2e	.	.	.	.
4G	.	.	.	.	.
1F	2d	1A	2r	2r	.
.	4c	.	[2cc	[2a	.
.	4d	.	.	.	.
=22	=22	=22	=22	=22	=22
1E	1e	0r	2cc]	2a]	2r
.	.	.	2b	2g#	1ee
1r	1r	.	2cc	2a	.
.	.	.	2b	2b	2dd
=23	=23	=23	=23	=23	=23
0r	0r	0r	1a	2.cc	2ee
.	.	.	.	.	2ff
.	.	.	.	8b	.
.	.	.	.	8a	.
.	.	.	2g	2b	2gg
.	.	.	2d	[2dd	[2ff
=24	=24	=24	=24	=24	=24
0r	0r	0r	1a	4dd]	4ff]
.	.	.	.	4cc	4ee
.	.	.	.	1cc	4ee
.	.	.	.	.	8dd
.	.	.	.	.	8cc
.	.	.	1g	.	2dd
.	.	.	.	2b	2dd
=25	=25	=25	=25	=25	=25
2r	2r	1c	0r	2cc	1ee
2c	2g	.	.	2ee	.
2B	2g	2d	.	2dd	1r
2G	2g	2e	.	2b	.
=26	=26	=26	=26	=26	=26
1A	2e	1c	0r	1cc	1r
.	2f#	.	.	.	.
1G	1g	2d	.	2b	2r
.	.	2e	.	2g	2gg
=27	=27	=27	=27	=27	=27
0r	0r	2d	0r	2a	2ff
.	.	2g	.	2b	2dd
.	.	2c	.	2cc	2ee
.	.	2c	.	2cc	2ee
=28	=28	=28	=28	=28	=28
2r	2r	2G	2r	1b	1dd
1G	1B	1d	1g	.	.
.	.	.	.	1r	1r
2E	2c	2G	2g	.	.
=29	=29	=29	=29	=29	=29
1D	1d	1A	1f#	1r	0r
1C	2e	1c	2g	2r	.
.	2g	.	2cc	2ee	.
=30	=30	=30	=30	=30	=30
0r	2g	0r	2b	2dd	1r
.	2e	.	2g	1gg	.
.	[1d	.	2b	.	2r
.	.	.	4a	[2ff	2dd
.	.	.	4g	.	.
=31	=31	=31	=31	=31	=31
0r	0d]	0r	4a	4ff]	2dd
.	.	.	8g	4ee	.
.	.	.	8f	.	.
.	.	.	1g	4dd	2b
.	.	.	.	4cc	.
.	.	.	.	1dd	1a
.	.	.	2f#	.	.
=32	=32	=32	=32	=32	=32
2r	2G	2r	2g	1dd	1b
1G	1B	1d	1g	.	.
.	.	.	.	1r	1r
2G	2B	2d	2g	.	.
=33	=33	=33	=33	=33	=33
2E	2c	2e	2g	0r	0r
2G	2B	2d	2g	.	.
1F	1c	1f	1a	.	.
=34	=34	=34	=34	=34	=34
2C	2c	1e	2g	0r	0r
1c	1e	.	1g	.	.
.	.	2c	.	.	.
2B	2d	2d	2g	.	.
=35	=35	=35	=35	=35	=35
2A	2c	2.e	2a	0r	0r
2G#	2B	.	2b	.	.
.	.	4e	.	.	.
2A	2A	2e	2cc	.	.
2E	2G#	2e	2b	.	.
=36	=36	=36	=36	=36	=36
1F	1A	2c	1a	1r	1r
.	.	2d	.	.	.
2E	2B	2e	2g	2r	2r
[2C	[2c	[2e	[2g	[2cc	[2ee
=37	=37	=37	=37	=37	=37
2C]	2c]	2e]	2g]	2cc]	2ee]
2C	2G	2c	2g	2cc	2ee
[1G	2.B	[1d	[1g	[1b	[1dd
.	4A	.	.	.	.
=38	=38	=38	=38	=38	=38
2G]	2G	2d]	2g]	2b]	2dd]
2D	2A	2d	2f#	2a	2dd
1D	2A	1d	2f#	1a	1dd
.	[2d	.	[2a	.	.
=39	=39	=39	=39	=39	=39
1G	2d]	1B	4a]	2b	1dd
.	.	.	4g	.	.
.	2B	.	1g	2g	.
1D	1A	1d	.	1a	1dd
.	.	.	2f#	.	.
=40	=40	=40	=40	=40	=40
0G	1G	0d	1g	1b	1dd
.	1g	.	1r	1b	2r
.	.	.	.	.	2dd
=41	=41	=41	=41	=41	=41
0r	2f	0r	0r	2a	2dd
.	2e	.	.	2g	2cc
.	1f	.	.	1a	2dd
.	.	.	.	.	[2cc
=42	=42	=42	=42	=42	=42
1r	2e	1r	1r	2cc	2cc]
.	2d	.	.	2dd	2b
2r	1c	2r	2r	1ee	1cc
2c	.	2e	2g	.	.
=43	=43	=43	=43	=43	=43
2B-	1r	2d	2g	0r	0r
2A	.	2c	2f	.	.
1B-	2r	1d	2g	.	.
.	2d	.	[2f	.	.
=44	=44	=44	=44	=44	=44
2A	2f	2c	2f]	0r	0r
2G	2g	2B	2e	.	.
[1F	2.a	2c	2.f	.	.
.	.	[2d	.	.	.
.	4g	.	4g	.	.
=45	=45	=45	=45	=45	=45
1F]	2f	4d]	1a	0r	0r
.	.	4c	.	.	.
.	2e	1c	.	.	.
1G	1d	.	1g	.	.
.	.	2B	.	.	.
=46	=46	=46	=46	=46	=46
2r	2r	2r	2r	2r	1r
2G	2d	2B	2g	2gg	.
1G	1d	1B	1g	1gg	2r
.	.	.	.	.	2gg
=47	=47	=47	=47	=47	=47
0C	1e	1c	1g	2ee	1gg
.	.	.	.	2.gg	.
.	2.g	1e	2r	.	2ee
.	.	.	.	4ff	.
.	.	.	[2c	4ee	[2gg
.	4f	.	.	4dd	.
=48	=48	=48	=48	=48	=48
0C	4e	2.g	4c]	2.cc	4gg]
.	4d	.	4d	.	4ff
.	2c	.	4e	.	4ee
.	.	4f	4f	4dd	4dd
.	4G	4e	2g	1ee	4cc
.	8A	4d	.	.	4b
.	8B	.	.	.	.
.	[2c	4c	[2a	.	4a
.	.	4B	.	.	4g
=49	=49	=49	=49	=49	=49
0D	2c]	2A	2a]	0dd	2f#
.	2B	2.d	1g	.	2g
.	1A	.	.	.	1a
.	.	4c	.	.	.
.	.	2d	2f#	.	.
=50	=50	=50	=50	=50	=50
1G	1G	1B	1g	1dd	1b
1r	1r	1r	1r	1r	1r
=51	=51	=51	=51	=51	=51
1G	1d	0r	1g	1b	1dd
2G	2d	.	2g	2b	2dd
2G	2B	.	2g	2g	2dd
=52	=52	=52	=52	=52	=52
1D	1A	0r	1f#	1a	1dd
1G	1G	.	1g	1b	1dd
=53	=53	=53	=53	=53	=53
0C	1g	2r	2e	2cc	2ee
.	.	2c	2g	2ee	2cc
.	1r	1c	1g	1ee	1cc
=54	=54	=54	=54	=54	=54
0r	0r	2G	2g	2dd	2b
.	.	2G	2g	2dd	2b
.	.	1c	1g	1ee	1cc
=55	=55	=55	=55	=55	=55
2r	2r	2F	2f	1cc	2a
1F	1c	1f	1a	.	1cc
.	.	.	.	1r	.
2F	2c	2f	2a	.	2cc
=56	=56	=56	=56	=56	=56
1F	1A	1f	1a	0r	1cc
1G	1B	1d	1g	.	1b
=57	=57	=57	=57	=57	=57
1.A	1.c	0r	2f	0r	2.a
.	.	.	4e	.	.
.	.	.	4d	.	4b
.	.	.	2e	.	2cc
2A	2c	.	2f#	.	2cc
=58	=58	=58	=58	=58	=58
1G	1d	1r	0g	1r	1b
1G	1r	1d	.	1gg	1b
=59	=59	=59	=59	=59	=59
1A	1r	1.c	2r	1ff	1a
.	.	.	2c	.	.
1c	2r	.	2e	1ee	1g
.	2c	2c	2e	.	.
=60	=60	=60	=60	=60	=60
1B	1G	1d	2.g	1dd	0r
.	.	.	4f	.	.
1c	1g	1e	2e	[1cc	.
.	.	.	2g	.	.
=61	=61	=61	=61	=61	=61
0G	1r	0d	0g	2cc]	1r
.	.	.	.	4b	.
.	.	.	.	4a	.
.	1G	.	.	1b	1gg
=62	=62	=62	=62	=62	=62
1r	1A	2r	2r	0cc	1ff
.	.	2a	2c	.	.
1C	1c	[1g	2e	.	1ee
.	.	.	2e	.	.
=63	=63	=63	=63	=63	=63
1G	1B	1g]	0g	2r	1dd
.	.	.	.	2dd	.
1C	1c	1e	.	2ee	[1cc
.	.	.	.	2cc	.
=64	=64	=64	=64	=64	=64
1G	[0G	1d	0g	1dd	2cc]
.	.	.	.	.	4b
.	.	.	.	.	4a
1G	.	1d	.	1dd	1b
=65	=65	=65	=65	=65	=65
0C	0G]	0c	0g	0ee	0cc
*-	*-	*-	*-	*-	*-
!!!CDT: 1525/^1526/-1594/2/2
!!!OCY: Italia
!!!AGN: Mass (Parody)
!!!AST: renaissance, vocal
!!!ASW: Motet (Palestrina)
!!!PWK: Masses, Book 9
!!!RNB: Cadence finals: C
!!!YOR: Le Opere Complete, v. 25, p. 209
!!!YOO: Rome, Italy: Fratelli Scalera
!!!END: 1992//
!!!EED: John Miller
!!!YEC: Copyright 2000, John Miller
!!!YEN: United States of America
!!!YEM: Rights to all derivative electronic formats reserved.
!!!YEM: Refer to licensing agreement for further details.
!!!YEM: This file must be accompanied by the licensing agreement.
!!!YEM: A copy of the licensing agreement may be found at http://www.music-cog.ohio-state.edu/HumdrumDatabases/Palestrina/license.txt
!!!EMD: converted to Humdrum by Bret Aarden
